!!!OTL: Kranzsingen. / C. Weihnachtslied. (1555.) / Auf die Noten: Aus frembden Landen kom ich her.
!!!ARE: Europa, Mitteleuropa, Deutschland
!!!SCT: A0271C
!!!TXL: @@GMH
!!!YEM: Copyright 1995, estate of Helmut Schaffrath.
**kern	**text	**text
*M4/1	*	*
*met(c|)	*	*
*clefC4	*	*
*k[b-]	*	*
*F:	*	*
!LO:TX:a:t=P:1r, 2r, 2f in the source:problem	!	!
2ryy	.	.
{2F	1._Es	2._Vom
=1	=1	=1
1c	kam	Hi-
1c	ein	-mel
1d	En-	hoch
1c	-gel	da
=2	=2	=2
1.c	hell	kom
2B-	vnd	ich
1A	klar	her,
2r}	.	.
{2G	von	ich
=3	=3	=3
1A	Gott	bring
1c	auffs	euch
1c	ſeldt	vil
*lig	*	*
2A	ʒum	der
2c	.	.
*Xlig	*	*
=4	=4	=4
*lig	*	*
2B-	hir-	gu-
2A	.	.
*Xlig	*	*
1G	-ten	-ten
1F	dar,	mär,
2r}	.	.
{2C	der	der
=5	=5	=5
1F	war	gu-
1G	gar	-ten
1A	ſeer	mär
1G	von	bring
=6	=6	=6
1.c	her-	ich
2B-	-tʒen	ſo
1A	fro	vil,
2r}	.	.
{2c	vnd	da-
=7	=7	=7
1c	ſprach	-von
1c	frö-	ich
1c	-lich	ſingn
1A	ʒu	vnd
=8	=8	=8
1B-	vns	ſa-
1G	al-	-gen
1F/ll}	-ſo:	wil.
==	==	==
!!!GTL: Raethsel-, Wett-, Wunsch- und Luegenlieder
!!!AGN: Romanze, Ballade, Lied
!! Trillers Singbuechlein 1555 "Aus frebden Landen komm ich her".
!!!ONB: ESAC (Essen Associative Code) Database: ALTDEU
!!!AMT: simple quadruple
!!!AIN: vox
!!!EED: Helmut Schaffrath
!!!EEV: 1.0
!!!RDF**kern: l = terminal long
!!!URL-scan: https://rosdok.uni-rostock.de/mcrviewer/recordIdentifier/rosdok_ppn738218359/iview2/phys_0423.iview2?x=-495.6391625615763&y=103.2527093749959&scale=0.4629418472063854&rotation=0&layout=singlePageLayout&logicalDiv=log_0011
!!!ENC: Anna Maria Matuszewska
!!!EEV: 2024/11/03
*-	*-	*-
